poi/svg/2601.svg

<?xml version="1.0" encoding="UTF-8" standalone="no"?>
<svg
   xmlns:dc="http://purl.org/dc/elements/1.1/"
   xmlns:cc="http://creativecommons.org/ns#"
   xmlns:rdf="http://www.w3.org/1999/02/22-rdf-syntax-ns#"
   xmlns:svg="http://www.w3.org/2000/svg"
   xmlns="http://www.w3.org/2000/svg"
   xmlns:sodipodi="http://sodipodi.sourceforge.net/DTD/sodipodi-0.dtd"
   xmlns:inkscape="http://www.inkscape.org/namespaces/inkscape"
   inkscape:version="1.0 (4035a4fb49, 2020-05-01)"
   sodipodi:docname="2601.svg"
   id="svg20"
   version="1.2"
   viewBox="0 0 42.519639 42.519639"
   height="14.999999mm"
   width="14.999999mm">
  <metadata
     id="metadata24">
    <rdf:RDF>
      <cc:Work
         rdf:about="">
        <dc:format>image/svg+xml</dc:format>
        <dc:type
           rdf:resource="http://purl.org/dc/dcmitype/StillImage" />
        <dc:title>Qt SVG Document</dc:title>
      </cc:Work>
    </rdf:RDF>
  </metadata>
  <sodipodi:namedview
     inkscape:current-layer="svg20"
     inkscape:window-maximized="0"
     inkscape:window-y="0"
     inkscape:window-x="0"
     inkscape:cy="28.346482"
     inkscape:cx="28.346482"
     inkscape:zoom="5.8410537"
     showgrid="false"
     id="namedview22"
     inkscape:window-height="480"
     inkscape:window-width="1034"
     inkscape:pageshadow="2"
     inkscape:pageopacity="0"
     guidetolerance="10"
     gridtolerance="10"
     objecttolerance="10"
     borderopacity="1"
     bordercolor="#666666"
     pagecolor="#ffffff" />
  <title
     id="title2">Qt SVG Document</title>
  <desc
     id="desc4">Generated with Qt</desc>
  <defs
     id="defs6" />
  <g
     transform="translate(5.25984,5.25984)"
     id="g18"
     stroke-linejoin="bevel"
     stroke-linecap="square"
     fill-rule="evenodd"
     stroke-width="1"
     stroke="#000000"
     fill="none">
    <g
       id="g10"
       font-style="normal"
       font-weight="400"
       font-size="7.8px"
       font-family="'MS Shell Dlg 2'"
       stroke="none"
       fill-opacity="1"
       fill="#6fa56c">
      <path
         id="path8"
         d="M 37.2598,16 C 37.2598,27.7415 27.7415,37.2598 16,37.2598 4.25851,37.2598 -5.25984,27.7415 -5.25984,16 -5.25984,4.25851 4.25851,-5.25984 16,-5.25984 27.7415,-5.25984 37.2598,4.25851 37.2598,16"
         fill-rule="evenodd"
         vector-effect="non-scaling-stroke" />
    </g>
    <g
       id="g14"
       font-style="normal"
       font-weight="400"
       font-size="7.8px"
       font-family="'MS Shell Dlg 2'"
       transform="translate(16,11.4646)"
       stroke="none"
       fill-opacity="1"
       fill="#ffffff">
      <path
         id="path12"
         d="m 10.9971,7.55322 c 0.5739,0.5739 0.8608,1.13379 0.8608,1.67969 0,0.65788 -0.3254,1.29479 -0.9763,1.91069 -0.6509,0.6158 -1.52572,1.1582 -2.62452,1.6272 -1.0988,0.4689 -2.39355,0.8468 -3.88428,1.1337 -1.49072,0.287 -3.08292,0.4305 -4.776609,0.4305 -1.693681,0 -3.285891,-0.1435 -4.776611,-0.4305 -1.49072,-0.2869 -2.79598,-0.6648 -3.91577,-1.1337 -1.11981,-0.469 -2.00161,-1.0114 -2.64551,-1.6272 -0.6439,-0.6159 -0.9658,-1.25281 -0.9658,-1.91069 0,-0.5179 0.2589,-1.0778 0.7768,-1.67969 l 1.1128,3.12838 0.4409,0.294 -1.3857,-5.27003 c 0.5739,0.30794 1.2423,0.58439 2.00513,0.82934 0.76286,0.24496 1.58521,0.45142 2.46704,0.61939 l 0.98682,5.501 0.94482,0.1889 -0.25195,-5.29098 c 1.55371,0.16797 3.28939,0.25196 5.207031,0.25196 1.833659,0 3.527349,-0.08399 5.081059,-0.25196 L 4.4043,12.8442 5.30713,12.6553 6.41992,7.1543 C 7.31576,6.98633 8.1276,6.77987 8.85547,6.53491 9.58333,6.28996 10.2342,6.01351 10.8081,5.70557 L 9.40137,10.9756 9.86328,10.6816 10.9971,7.55322 M 3.20752,8.66602 C 2.63363,8.72201 2.05273,8.764 1.46484,8.79199 0.876953,8.81999 0.254069,8.83398 -0.403809,8.83398 -1.06169,8.83398 -1.69857,8.81999 -2.31445,8.79199 -2.93034,8.764 -3.53923,8.72201 -4.14111,8.66602 l 1.11279,4.07328 c 0.25195,0.0699 0.5249,0.1189 0.81885,0.1469 0.46191,0.084 1.0638,0.126 1.805661,0.126 0.657878,0 1.231771,-0.042 1.721679,-0.126 0.27995,-0.028 0.5389,-0.077 0.77686,-0.1469 L 3.20752,8.66602 M -3.1123,9.48486 c 0.39192,0 0.81884,0.014 1.28076,0.042 0.46191,0.02799 0.937823,0.04199 1.427731,0.04199 0.40592489,0 0.836345,-0.014 1.29126,-0.04199 0.454919,-0.028 0.885339,-0.042 1.291259,-0.042 L 1.52783,10.7656 c -0.5179,0.14 -1.161782,0.21 -1.931639,0.21 -0.867841,0 -1.553711,-0.07 -2.057621,-0.21 L -3.1123,9.48486 M -8.4873,4.02588 C -7.57747,3.53597 -6.42619,3.14754 -5.03345,2.8606 -3.64071,2.57365 -2.09749,2.43018 -0.403809,2.43018 1.26188,2.43018 2.7876,2.57365 4.17334,2.8606 5.55908,3.14754 6.71387,3.53597 7.6377,4.02588 6.62988,4.38981 5.42961,4.69425 4.03687,4.93921 2.64412,5.18416 1.1639,5.30664 -0.403809,5.30664 -2.01351,5.30664 -3.51123,5.18416 -4.89697,4.93921 -6.28271,4.69425 -7.47949,4.38981 -8.4873,4.02588 m 8.167476,-6.31983 c 1.833654,0 3.565834,0.12948 5.196534,0.38843 1.6307,0.25895 3.05143,0.60189 4.26221,1.028811 1.21078,0.426921 2.16608,0.9343262 2.86598,1.522217 0.6999,0.587892 1.0498,1.210772 1.0498,1.868652 0,0.68587 -0.3499,1.32275 -1.0498,1.91064 C 11.305,5.0127 10.3357,5.5236 9.09692,5.95752 7.85815,6.39144 6.42342,6.73438 4.79272,6.98633 3.16203,7.23828 1.42985,7.36426 -0.403809,7.36426 -2.29346,7.36426 -4.06413,7.23828 -5.71582,6.98633 -7.36751,6.73438 -8.80225,6.39144 -10.02,5.95752 -11.2378,5.5236 -12.2036,5.0127 -12.9175,4.4248 c -0.7138,-0.58789 -1.0708,-1.22477 -1.0708,-1.91064 0,-0.65788 0.35,-1.28076 1.0498,-1.868652 0.6999,-0.5878908 1.6517,-1.095296 2.8555,-1.522217 1.20377,-0.426921 2.61401,-0.769861 4.23071,-1.028811 1.61669,-0.25895 3.36287,-0.38843 5.23852,-0.38843 v -3.06543 h 0.293946 v 0.16797 l 4.178224,0.73487 -4.178224,0.73486 v 1.42773 M -0.403809,5.55859 C 1.20589,5.55859 2.71061,5.46761 4.11035,5.28564 5.51009,5.10368 6.74186,4.85522 7.80566,4.54028 8.86947,4.22534 9.70231,3.84391 10.3042,3.396 10.9061,2.94808 11.207,2.46517 11.207,1.94727 11.207,1.28939 10.7031,0.701497 9.69531,0.183594 L 7.19678,3.375 C 7.00081,3.26302 6.78735,3.17904 6.5564,3.12305 6.32544,3.06706 6.09798,2.99007 5.87402,2.89209 L 7.76367,-0.614258 C 7.24577,-0.768229 6.67887,-0.901204 6.06299,-1.01318 5.4471,-1.12516 4.98519,-1.20915 4.67725,-1.26514 L 3.94238,2.43018 C 3.62044,2.37419 3.295,2.3182 2.96606,2.26221 2.63713,2.20622 2.31868,2.17822 2.01074,2.17822 l 0.79785,-3.7583 C 2.44466,-1.63607 2.03174,-1.66406 1.56982,-1.66406 c -0.46191,0 -0.951819,-0.028 -1.469722,-0.08399 V 1.94727 H -1.09668 v -3.69532 c -0.48991,0.05599 -0.94132,0.08399 -1.35425,0.08399 -0.41292,0 -0.73836,0.02799 -0.97632,0.08398 l 0.69287,3.7583 c -0.33593,0 -0.64737,0.014 -0.93432,0.04199 -0.28695,0.028 -0.57739,0.06999 -0.87134,0.12598 l -0.73486,-3.7373 c -0.5739,0.11198 -1.12329,0.22396 -1.6482,0.33593 -0.5249,0.111983 -0.99031,0.223963 -1.39624,0.335942 L -6.47168,2.80811 C -6.75163,2.8641 -6.99308,2.93058 -7.19604,3.00757 -7.39901,3.08455 -7.61247,3.16504 -7.83643,3.24902 L -10.251,0.015625 c -1.2597,0.573893 -1.8896,1.217775 -1.8896,1.931645 0,0.5179 0.3079,1.00081 0.9238,1.44873 0.6159,0.44791 1.44523,0.82934 2.48804,1.14428 1.04281,0.31494 2.28158,0.5634 3.71631,0.74536 1.43473,0.18197 2.97095,0.27295 4.608641,0.27295"
         fill-rule="evenodd"
         vector-effect="none" />
    </g>
    <g
       id="g16"
       font-style="normal"
       font-weight="400"
       font-size="7.8px"
       font-family="'MS Shell Dlg 2'"
       stroke="none"
       fill-opacity="1"
       fill="#6fa56c" />
  </g>
</svg>

<?xml version="1.0" encoding="UTF-8" standalone="no"?>
<svg width="11.2889mm" height="11.2889mm"
 viewBox="0 0 32 32"
 xmlns="http://www.w3.org/2000/svg" xmlns:xlink="http://www.w3.org/1999/xlink"  version="1.2" baseProfile="tiny">
<title>Qt SVG Document</title>
<desc>Generated with Qt</desc>
<defs>
</defs>
<g fill="none" stroke="black" stroke-width="1" fill-rule="evenodd" stroke-linecap="square" stroke-linejoin="bevel" >

<g fill="#6fa56c" fill-opacity="1" stroke="none" transform="matrix(1,0,0,1,0,0)"
font-family="MS Shell Dlg 2" font-size="7.8" font-weight="400" font-style="normal" 
>
<path vector-effect="non-scaling-stroke" fill-rule="evenodd" d="M37.2598,16 C37.2598,27.7415 27.7415,37.2598 16,37.2598 C4.25851,37.2598 -5.25984,27.7415 -5.25984,16 C-5.25984,4.25851 4.25851,-5.25984 16,-5.25984 C27.7415,-5.25984 37.2598,4.25851 37.2598,16 "/>
</g>

<g fill="#ffffff" fill-opacity="1" stroke="none" transform="matrix(1,0,0,1,16,11.4646)"
font-family="MS Shell Dlg 2" font-size="7.8" font-weight="400" font-style="normal" 
>
<path vector-effect="none" fill-rule="evenodd" d="M10.9971,7.55322 C11.571,8.12712 11.8579,8.68701 11.8579,9.23291 C11.8579,9.89079 11.5325,10.5277 10.8816,11.1436 C10.2307,11.7594 9.35588,12.3018 8.25708,12.7708 C7.15828,13.2397 5.86353,13.6176 4.3728,13.9045 C2.88208,14.1915 1.28988,14.335 -0.403809,14.335 C-2.09749,14.335 -3.6897,14.1915 -5.18042,13.9045 C-6.67114,13.6176 -7.9764,13.2397 -9.09619,12.7708 C-10.216,12.3018 -11.0978,11.7594 -11.7417,11.1436 C-12.3856,10.5277 -12.7075,9.89079 -12.7075,9.23291 C-12.7075,8.71501 -12.4486,8.15511 -11.9307,7.55322 L-10.8179,10.6816 L-10.377,10.9756 L-11.7627,5.70557 C-11.1888,6.01351 -10.5204,6.28996 -9.75757,6.53491 C-8.99471,6.77987 -8.17236,6.98633 -7.29053,7.1543 L-6.30371,12.6553 L-5.35889,12.8442 L-5.61084,7.55322 C-4.05713,7.72119 -2.32145,7.80518 -0.403809,7.80518 C1.42985,7.80518 3.12354,7.72119 4.67725,7.55322 L4.4043,12.8442 L5.30713,12.6553 L6.41992,7.1543 C7.31576,6.98633 8.1276,6.77987 8.85547,6.53491 C9.58333,6.28996 10.2342,6.01351 10.8081,5.70557 L9.40137,10.9756 L9.86328,10.6816 L10.9971,7.55322 M3.20752,8.66602 C2.63363,8.72201 2.05273,8.764 1.46484,8.79199 C0.876953,8.81999 0.254069,8.83398 -0.403809,8.83398 C-1.06169,8.83398 -1.69857,8.81999 -2.31445,8.79199 C-2.93034,8.764 -3.53923,8.72201 -4.14111,8.66602 L-3.02832,12.7393 C-2.77637,12.8092 -2.50342,12.8582 -2.20947,12.8862 C-1.74756,12.9702 -1.14567,13.0122 -0.403809,13.0122 C0.254069,13.0122 0.827962,12.9702 1.31787,12.8862 C1.59782,12.8582 1.85677,12.8092 2.09473,12.7393 L3.20752,8.66602 M-3.1123,9.48486 C-2.72038,9.48486 -2.29346,9.49886 -1.83154,9.52686 C-1.36963,9.55485 -0.893717,9.56885 -0.403809,9.56885 C0.00211589,9.56885 0.432536,9.55485 0.887451,9.52686 C1.34237,9.49886 1.77279,9.48486 2.17871,9.48486 L1.52783,10.7656 C1.00993,10.9056 0.366048,10.9756 -0.403809,10.9756 C-1.27165,10.9756 -1.95752,10.9056 -2.46143,10.7656 L-3.1123,9.48486 M-8.4873,4.02588 C-7.57747,3.53597 -6.42619,3.14754 -5.03345,2.8606 C-3.64071,2.57365 -2.09749,2.43018 -0.403809,2.43018 C1.26188,2.43018 2.7876,2.57365 4.17334,2.8606 C5.55908,3.14754 6.71387,3.53597 7.6377,4.02588 C6.62988,4.38981 5.42961,4.69425 4.03687,4.93921 C2.64412,5.18416 1.1639,5.30664 -0.403809,5.30664 C-2.01351,5.30664 -3.51123,5.18416 -4.89697,4.93921 C-6.28271,4.69425 -7.47949,4.38981 -8.4873,4.02588 M-0.319824,-2.29395 C1.51383,-2.29395 3.24601,-2.16447 4.87671,-1.90552 C6.50741,-1.64657 7.92814,-1.30363 9.13892,-0.876709 C10.3497,-0.449788 11.305,0.0576172 12.0049,0.645508 C12.7048,1.2334 13.0547,1.85628 13.0547,2.51416 C13.0547,3.20003 12.7048,3.83691 12.0049,4.4248 C11.305,5.0127 10.3357,5.5236 9.09692,5.95752 C7.85815,6.39144 6.42342,6.73438 4.79272,6.98633 C3.16203,7.23828 1.42985,7.36426 -0.403809,7.36426 C-2.29346,7.36426 -4.06413,7.23828 -5.71582,6.98633 C-7.36751,6.73438 -8.80225,6.39144 -10.02,5.95752 C-11.2378,5.5236 -12.2036,5.0127 -12.9175,4.4248 C-13.6313,3.83691 -13.9883,3.20003 -13.9883,2.51416 C-13.9883,1.85628 -13.6383,1.2334 -12.9385,0.645508 C-12.2386,0.0576172 -11.2868,-0.449788 -10.083,-0.876709 C-8.87923,-1.30363 -7.46899,-1.64657 -5.85229,-1.90552 C-4.2356,-2.16447 -2.48942,-2.29395 -0.61377,-2.29395 L-0.61377,-5.35938 L-0.319824,-5.35938 L-0.319824,-5.19141 L3.8584,-4.45654 L-0.319824,-3.72168 L-0.319824,-2.29395 M-0.403809,5.55859 C1.20589,5.55859 2.71061,5.46761 4.11035,5.28564 C5.51009,5.10368 6.74186,4.85522 7.80566,4.54028 C8.86947,4.22534 9.70231,3.84391 10.3042,3.396 C10.9061,2.94808 11.207,2.46517 11.207,1.94727 C11.207,1.28939 10.7031,0.701497 9.69531,0.183594 L7.19678,3.375 C7.00081,3.26302 6.78735,3.17904 6.5564,3.12305 C6.32544,3.06706 6.09798,2.99007 5.87402,2.89209 L7.76367,-0.614258 C7.24577,-0.768229 6.67887,-0.901204 6.06299,-1.01318 C5.4471,-1.12516 4.98519,-1.20915 4.67725,-1.26514 L3.94238,2.43018 C3.62044,2.37419 3.295,2.3182 2.96606,2.26221 C2.63713,2.20622 2.31868,2.17822 2.01074,2.17822 L2.80859,-1.58008 C2.44466,-1.63607 2.03174,-1.66406 1.56982,-1.66406 C1.10791,-1.66406 0.618001,-1.69206 0.100098,-1.74805 L0.100098,1.94727 L-1.09668,1.94727 L-1.09668,-1.74805 C-1.58659,-1.69206 -2.038,-1.66406 -2.45093,-1.66406 C-2.86385,-1.66406 -3.18929,-1.63607 -3.42725,-1.58008 L-2.73438,2.17822 C-3.07031,2.17822 -3.38175,2.19222 -3.6687,2.22021 C-3.95565,2.24821 -4.24609,2.2902 -4.54004,2.34619 L-5.2749,-1.39111 C-5.8488,-1.27913 -6.39819,-1.16715 -6.9231,-1.05518 C-7.448,-0.943197 -7.91341,-0.831217 -8.31934,-0.719238 L-6.47168,2.80811 C-6.75163,2.8641 -6.99308,2.93058 -7.19604,3.00757 C-7.39901,3.08455 -7.61247,3.16504 -7.83643,3.24902 L-10.251,0.015625 C-11.5107,0.589518 -12.1406,1.2334 -12.1406,1.94727 C-12.1406,2.46517 -11.8327,2.94808 -11.2168,3.396 C-10.6009,3.84391 -9.77157,4.22534 -8.72876,4.54028 C-7.68595,4.85522 -6.44718,5.10368 -5.01245,5.28564 C-3.57772,5.46761 -2.0415,5.55859 -0.403809,5.55859 "/>
</g>

<g fill="#6fa56c" fill-opacity="1" stroke="none" transform="matrix(1,0,0,1,0,0)"
font-family="MS Shell Dlg 2" font-size="7.8" font-weight="400" font-style="normal" 
>
</g>
</g>
</svg>
